X:1
T:24 Arie Antiche
T:Come raggio di sol
T:Low voices
T:Antonio Caldara (1670-1736) Alessandro Parisotti (1853-1913)
T:Come raggio di sol
T:(24 Arie Antiche)
T:Creative Commons copyright waiver (CC0 1.0 Universal)
T:Creative Commons copyright waiver (CC0 1.0 Universal)
T:Creative Commons copyright waiver (CC0 1.0 Universal)
C:Antonio Caldara (1670 - 1736)
Z:Creative Commons copyright waiver (CC0 1.0 Universal)
%%score 1 { 2 | 3 }
L:1/8
Q:1/4=46
M:3/4
K:F
V:1 treble nm="Voice"
V:2 treble nm="Piano"
V:3 bass 
V:1
"^Sostenuto" z6 | z6 | z6 |!pp!!<(! D2 D D D D | G4!<)! z2 |!p! (B2 E2 G2 | F>E D2) z2 | %7
w: |||Co- me rag- gio di|sol|mi- tee se-|re- * no,|
[Q:1/4=58]!<(! D2 D D D D | A4!<)! z2 |!p! (c2 ^F2 A2 | G4 G2) | z2 z2 ^G G | A4 E ^F | %13
w: co- me rag- gio di|sol|mi- tee se-|re- no|so- vra|pla- ci- di|
 =G2 G2 A E | =F4 F2 | z2 !>!c2"^affrett." _E E |"^poco a poco" _E2 D2[Q:1/4=58] !>!d2-[Q:1/4=48] | %17
w: flut- ti si ri-|po- sa,|men- tre del|ma- re, men-|
 d2 F3 F | F2 !breath!E2!pp! E E | ^F4 F2 | !>!G4 G2 | z2 z!p! ^G G!<(! G | A6-!<)! | A6 | %24
w: .- tre del|ma- re nel pro-|fon- do|se- no|sta la tem-|pe-|.-|
 A4!f! (A2 |"^rit."[Q:1/4=54] A>^F ^G3"^rall." A)[Q:1/4=50] |[Q:1/4=55]"^a tempo" A4 z2 | %27
w: sta a-|sco- .- .- .-|sa:|
 z2 z2!p! E3/2 E/ |"^tranquillo" =F4 F F | !>!c3 A F[Q:1/4=58] _E | _E2 D2 G3/2 G/ | %31
w: co- sì|ri- so ta-|lor ga- ioe pa-|ca- to di con-|
!>(! G2 ^F3!>)! F | !>!A G!>(! !>!B2 G2!>)! | (_E2{GF)} E2 z2 | G2 _E E D D | %35
w: ten- to, di|gio- iaun la- broin|fio- ra,|men- tre nel suo se-|
 ^C2 C !tenuto!C !tenuto!C !tenuto!C |!<(! D6 | D6-!<)! |!f!"^dim. e rit." D3[Q:1/4=54] D D D | %39
w: gre- to il cor pia-|ga-|to|_ s`an- go- sciae|
 D3/2 =B,/"^rall."[Q:1/4=50] (^C3 D) |!pp![Q:1/4=54]!<(! D6-!<)! | D4[Q:1/4=50] z2 | z6[Q:1/4=46] | %43
w: si mar- to- *|ra.|_||
 z6 |] %44
w: |
V:2
!ppp!!<(! (.[A,D].[A,D].[A,D].[A,D]!<)!.[A,D].[A,D]) | %1
 (.[A,D]!>(!.[A,D].[B,D].[B,D].[B,D]!>)!.[B,D]) | %2
 (.[G,D].[G,D]"_dim.".[G,^C].[G,C].[G,A,C].[G,A,C]) | [A,D][A,D]!<(! [A,D][A,D] [A,D][A,D] | %4
 [B,E][B,E]!<)!!>(! [B,E][B,E] [B,E][B,E]!>)! | [B,E][B,E] [B,E][B,E] [B,E][B,E] | %6
 [A,D][A,D] [A,D][A,D] [A,D][A,D] |!<(! [A,D][A,D] [A,D][A,D] [A,D]!<)![A,D] | %8
!>(! [A,_E][A,E] [A,E][A,E]!>)! [A,E][A,E] | [A,_E][A,E] [A,E][A,E] [A,E][A,E] | %10
 [B,D][B,D] [B,D][B,D] [B,D][B,D] |!pp! [^G,D][G,D] [G,D][G,D] [G,D][G,D] | %12
 [A,^C][A,C] [A,C][A,C] [A,C][A,C] | [A,^C][A,C] [A,C][A,C] [A,C][A,C] | %14
 [A,=C][A,C] [A,C][A,C] [A,C][A,C] | [F,C][F,C] [F,C][F,C] [F,C][F,C] | %16
 [F,C][F,C] [F,B,][F,B,] [F,B,][F,B,] | [=B,D][B,D] [B,D][B,D] [B,D][B,D] | %18
 [G,D][G,D] [G,C][G,C] [G,C][G,C] | [A,C][A,C] [A,C][A,C] [A,C][A,C] | %20
 [G,B,][G,B,] [G,B,][G,B,] [G,B,][G,B,] | [^G,D][G,D]!p! [G,D][G,D] [G,D][G,D] | %22
!<(! [A,^C][A,C] [A,C][A,C] [A,C][A,C]!<)! | [A,D][A,D] [A,D][A,D] [A,=C][A,C] | %24
 [A,=B,][A,B,] [A,B,][A,B,] [A,B,][A,B,] | [A,=B,][A,B,] [^G,B,]([G,=F] [G,E][G,D]) | %26
!p! [A,^C][A,C] [A,C][A,C] [A,D][A,D] | [A,D][A,D] [A,D][A,D] [A,^C][A,C] | %28
!pp! [A,=C][A,C] [A,C][A,C] [A,C][A,C] | [F,C][F,C] [F,C][F,C] [F,C][F,C] | %30
 [F,B,][F,B,] [F,B,][F,B,] [F,D][F,D] | [G,C][G,C] [^F,C][F,C] [F,C][F,C] | %32
 [G,B,][G,B,] [G,B,][G,B,] [G,B,][G,B,] | [G,B,][G,B,] [G,B,][G,B,] [G,B,][G,B,] | %34
 [B,_E][B,E] [B,E][B,E] [B,D][B,D] | [A,^C][A,C] [A,C][A,C] [A,C][A,C] | %36
!<(! [A,D][A,D] [A,D][A,D] [A,D][A,D] | [B,D][B,D] [B,D][B,D] [=B,D][B,D]!<)! | %38
!f! [=B,D]!>(![B,D] [B,D][B,D] [B,D][B,D] | [A,D][A,D] [A,^C]([_B,C] [A,C]!>)![G,C]) | %40
!pp!"^a tempo"!<(! [F,A,D][F,A,D] [F,A,D][F,A,D] [^F,A,D][F,A,D]!<)! | %41
 [G,B,D][G,B,D] [G,B,D][G,B,D] [G,B,D][G,B,D] | %42
 [E,G,D][E,G,D]!>(! [E,G,^C][E,G,C] [E,G,C][E,G,C]!>)! |!ppp! [^F,D]4 z2 |] %44
V:3
 (.[D,F,].[D,F,].[D,F,].[D,F,].[D,F,]"^cresc. molto".[D,F,]) | %1
 (.[D,^F,].[D,F,].[D,G,].[D,G,].[D,G,].[D,G,]) | (.[D,E,].[D,E,].[D,E,].[D,E,].[D,E,].[D,E,]) | %3
"^simile" [D,=F,][D,F,] [D,F,][D,F,] [D,F,][D,F,] | [^C,G,][C,G,] [C,G,][C,G,] [C,G,][C,G,] | %5
 [^C,G,][C,G,] [C,G,][C,G,] [C,G,][C,G,] | [D,F,][D,F,] [D,F,][D,F,] [D,F,][D,F,] | %7
 [D,F,][D,F,] [D,F,][D,F,] [D,F,][D,F,] | [=C,^F,][C,F,] [C,F,][C,F,] [C,F,][C,F,] | %9
 [C,^F,][C,F,] [C,F,][C,F,] [C,F,][C,F,] | [B,,G,][B,,G,] [B,,G,][B,,G,] [B,,G,][B,,G,] | %11
 [=B,,=F,][B,,F,] [B,,F,][B,,F,] [B,,F,][B,,F,] | [A,,E,][A,,E,] [A,,E,][A,,E,] [A,,E,][A,,E,] | %13
 [A,,E,][A,,E,] [A,,E,][A,,E,] [A,,E,][A,,E,] | [A,,F,][A,,F,] [A,,F,][A,,F,] [A,,F,][A,,F,] | %15
 [A,,_E,][A,,E,] [A,,E,][A,,E,]"^affrett." [A,,E,][A,,E,] | %16
"^poco a poco" [B,,_E,][B,,E,] [B,,D,][B,,D,] [B,,D,][B,,D,] | %17
 [G,,F,][G,,F,] [G,,F,][G,,F,] [G,,F,][G,,F,] | [C,F,][C,F,] [C,=E,][C,E,] [C,E,][C,E,] | %19
 [A,,^F,][A,,F,] [A,,F,][A,,F,] [A,,F,][A,,F,] | [G,,D,][G,,D,] [G,,D,][G,,D,] [G,,D,][G,,D,] | %21
 [=B,,F,][B,,F,] [B,,F,][B,,F,] [B,,F,][B,,F,] | %22
"^cresc. e string." [A,,E,][A,,E,] [A,,E,][A,,E,] [A,,E,][A,,E,] | %23
 [D,F,][D,F,] [D,F,][D,F,] [D,^F,][D,F,] | [^D,^F,][D,F,] [D,F,][D,F,] [D,F,][D,F,] | %25
"^col canto" E,E, E,([E,,D,] [E,,C,][E,,=B,,]) | %26
"^a tempo" A,,[A,,E,] [A,,F,][A,,F,] [A,,F,][A,,F,] | %27
 [A,,E,][A,,E,] [A,,E,][A,,E,] [A,,E,][A,,E,] | [A,,F,][A,,F,] [A,,F,][A,,F,] [A,,F,][A,,F,] | %29
 [A,,_E,][A,,E,] [A,,E,][A,,E,] [A,,E,][A,,E,] | [B,,_E,][B,,E,] [B,,E,][B,,E,] [B,,E,][B,,E,] | %31
 [A,,_E,][A,,E,] [A,,D,][A,,D,] [A,,D,][A,,D,] | [G,,D,][G,,D,] [G,,D,][G,,D,] [G,,D,][G,,D,] | %33
 [G,,_E,][G,,E,] [G,,E,][G,,E,] [G,,E,][G,,E,] | [G,,G,][G,,G,] [G,,G,][G,,G,] [G,,F,][G,,F,] | %35
 [G,,=E,][G,,E,] [G,,E,][G,,E,] [G,,E,][G,,E,] | %36
"^cresc. e string." [F,,F,][F,,F,] [F,,F,][F,,F,] [F,,F,][F,,F,] | %37
 [G,,D,][G,,D,] [G,,D,][G,,D,] [G,,D,][G,,D,] | %38
 [^G,,E,]"^dim. e rit."[G,,E,] [G,,E,][G,,E,] [G,,E,][G,,E,] | %39
 [A,,E,][A,,E,] [A,,E,]"^rall."([A,,=G,] [A,,F,][A,,E,]) | %40
 [D,,D,][D,,D,] [D,,D,][D,,D,] [D,,D,][D,,D,] | [D,,D,][D,,D,] [D,,D,][D,,D,] [D,,D,][D,,D,] | %42
 [D,,D,][D,,D,]"^dim. assai" [D,,A,,][D,,A,,] [D,,A,,][D,,A,,] | [D,,A,,]4 z2 |] %44

